!!!COM: Haydn, Franz Joseph
!!!OTL: String Quartet in E Major
!!!OPS: Opus 17
!!!ONM: No. 1
!!!OMD: Menuetto
!!!OMV: 2
!!!SCT: H III:25
!!!SCA: Thematisch-bibliographisches Werkevererzeichnis (A. van Hoboken)
!!!YOR: Trautwein Edition
!!!ENC: Frances Bennion
!!!CDT: 1732/3/31/-1809/5/31/
!!!CNT: Oesterreich
!!!YEC: Copyright (c) 1994, 2000 Center for Computer Assisted Research in the Humanities
!!!YEM: Rights to all derivative editions reserved.
!!!YEM: Refer to licensing agreement for further details.
!!!YEN: United States of America
**kern	**kern	**kern	**kern
*k[f#c#g#d#]	*k[f#c#g#d#]	*k[f#c#g#d#]	*k[f#c#g#d#]
*E:	*E:	*E:	*E:
*clefF4	*clefC3	*clefG	*clefG
*M3/4	*M3/4	*M3/4	*M3/4
4E	2.r	4e	4e
2r	.	4b	4b
.	.	4b	4b
=2	=2	=2	=2
4E	4G#	2b	2b
4G#	4B	.	.
4E	4e	8.g#	8.g#
.	.	16e	16e
=3	=3	=3	=3
4A	4A	4c#	4c#
2r	2r	4cc#	4cc#
.	.	4cc#	4cc#
=4	=4	=4	=4
4A	4A	2cc#	2cc#
4F#	4A	.	.
4A	4F#	8.a	8.a
.	.	16f#	16f#
=5	=5	=5	=5
2B	[2.B	2d#	2d#
4D#	.	4f#	4b
=6	=6	=6	=6
4E	2B]	2f#	2a
4BB	.	.	.
4EE	4r	4e	4g#
=7	=7	=7	=7
2.r	2.r	4e	4e
.	.	4ee	4gg#
.	.	4ee	4gg#
=8	=8	=8	=8
4C#	4E	2ee	2gg#
4c#	4e	.	.
4c#	4e	4g#	8.ee
.	.	.	16cc#
=9	=9	=9	=9
2.c#	2.e	2.a#	4a#
.	.	.	4ff#
.	.	.	4ff#
=10	=10	=10	=10
2.d#	2.f#	2.b	8ee#
.	.	.	8ff#
.	.	.	8gg#
.	.	.	8ff#
.	.	.	4ff#
=11	=11	=11	=11
2.e	2.a#	2.cc#	4ff#
.	.	.	4ff#
.	.	.	4ff#
=12	=12	=12	=12
2.d#	2.f#	2.b	8ee#
.	.	.	8ff#
.	.	.	8gg#
.	.	.	8ff#
.	.	.	4ff#
=13	=13	=13	=13
2c#	2e	2a#	8ff#
.	.	.	8ee
.	.	.	8dd#
.	.	.	8ee
4B	4f#	4b	4dd#
=14	=14	=14	=14
2e	2e	2g#	8dd#
.	.	.	8cc#
.	.	.	8b
.	.	.	8cc#
4d#	4d#	4f#	4b
=15	=15	=15	=15
4e	4e	4g#	4b#
2r	2r	2r	4cc#
.	.	.	4dd#
=16	=16	=16	=16
2E	2e	2g#	4ee
.	.	.	4g#
4F#	4c#	4e	4a#
=17	=17	=17	=17
2.BB	2.A#	2.e	2.cc#
=18	=18	=18	=18
4B	4B	4d#	4b
2r	2r	2r	2r
=19	=19	=19	=19
4BB	2.r	2.r	2.r
4B	.	.	.
4B	.	.	.
=20	=20	=20	=20
2B	4c#	2.r	2.r
.	4cc#	.	.
8.A	4cc#	.	.
16F#	.	.	.
=21	=21	=21	=21
2D#	4cc#	4a	2.r
.	4b	4aa	.
4B	8d#	4aa	.
.	8f#	.	.
=22	=22	=22	=22
4E	4f#	4aa	4b
2r	4e	4gg#	4bb
.	4g#	8ee	4bb
.	.	8dd#	.
=23	=23	=23	=23
4AA	4c#	[2.cc#	2bb
4A	4cc#	.	.
4A	4cc#	.	8aa
.	.	.	8gg#
=24	=24	=24	=24
[2.A	2cc#	2.cc#_	8gg#
.	.	.	8ff#
.	.	.	8ee#
.	.	.	8ff#
.	4f#	.	8aa
.	.	.	8ff#
=25	=25	=25	=25
2.A]	4f#	4cc#]	4cc#
.	4A	4f#	4cc#
.	4A	4f#	4ff#
=26	=26	=26	=26
4AA	4B	4f#	2ee
4A	4f#	2r	.
4A	4f#	.	4dd#
=27	=27	=27	=27
2.A	2.f#	4B	4B
.	.	4d#	4b
.	.	4d#	4b
=28	=28	=28	=28
4GG#	4E	4e	2b
4G#	4G#	8ee	.
.	.	8dd#	.
4G#	4G#	8cc#	8a
.	.	8b	8g#
=29	=29	=29	=29
4A	4A	4a	4f#
4B	4B	4g#	4e
4BB	8B	4f#	4d#
.	8A	.	.
=30	=30	=30	=30
4C#	4G#	4e	4e
2r	2r	2r	2r
=31	=31	=31	=31
2.r	2.r	4cc#	4ee
.	.	4aa	4ccc#
.	.	4aa	4ccc#
=32	=32	=32	=32
4A	4c#	2aa	2ccc#
4f#	4a	.	.
4f#	4a	8.ff#	8.aa
.	.	16dd#	16ff#
=33	=33	=33	=33
2f#	2a	4b	4dd#
.	.	4dd#	4bb
8.d#	8.f#	4dd#	4bb
16B	16d#	.	.
=34	=34	=34	=34
4G#	4B	2gg#	2bb
4e	4g#	.	.
4e	4g#	8.ee	8.gg#
.	.	16cc#	16ee
=35	=35	=35	=35
2e	2g#	4a	4cc#
.	.	4cc#	4aa
8.c#	8.e	4cc#	4aa
16A	16c#	.	.
=36	=36	=36	=36
4F#	4A	2ff#	2aa
4d#	4f#	.	.
4d#	4f#	8.dd#	8.ff#
.	.	16b	16dd#
=37	=37	=37	=37
2d#	4f#	2f#	4b
.	4B	.	4aa
4D#	4f#	4b	4aa
=38	=38	=38	=38
2.E	2.g#	2.b	8gg#
.	.	.	8bb
.	.	.	8ccc#
.	.	.	8bb
.	.	.	4bb
=39	=39	=39	=39
2.F#	2.a	2.dd#	4bb
.	.	.	4bb
.	.	.	4bb
=40	=40	=40	=40
2.G#	2.b	2.ee	8aa#
.	.	.	8bb
.	.	.	8ccc#
.	.	.	8bb
.	.	.	4bb
=41	=41	=41	=41
2.A	2.dd#	2.ff#	4bb
.	.	.	4bb
.	.	.	4bb
=42	=42	=42	=42
2.G#	2.b	2.ee	8aa#
.	.	.	8bb
.	.	.	8ccc#
.	.	.	8bb
.	.	.	4bb
=43	=43	=43	=43
2.G#	[2.cc#	2.ee#	4bb
.	.	.	4bb
.	.	.	4bb
=44	=44	=44	=44
2F#	2cc#]	2ff#	8bb
.	.	.	8aa#
.	.	.	8gg#
.	.	.	8ff#
4F#	4b	4r	4aa
=45	=45	=45	=45
2E	2b	2ee	8aa
.	.	.	8gg#
.	.	.	8ff#
.	.	.	8ee
4A	4f#	4dd#	4ccc#
=46	=46	=46	=46
2.G#	2.e	2.ee	8ccc#
.	.	.	8bb
.	.	.	8aa
.	.	.	8gg#
.	.	.	8ff#
.	.	.	8ee
=47	=47	=47	=47
4A	4a	4cc#	4ee#
2r	2r	2r	4ff#
.	.	.	4gg#
=48	=48	=48	=48
2AA	2a	2cc#	4aa
.	.	.	4cc#
4BB	4f#	4a	4dd#
=49	=49	=49	=49
2.EE	2.d#	2.a	2.ff#
=50	=50	=50	=50
4E	4e	4g#	4ee
2r	2r	2r	2r
=51	=51	=51	=51
4E	2.r	[2.b	2.r
4F#	.	.	.
4G	.	.	.
=52	=52	=52	=52
4A	2.r	4b]	[2.cc
4F#	.	4a	.
4E	.	4g	.
=53	=53	=53	=53
2.D#	2r	[2.f#	4cc]
.	.	.	4b
.	[4B	.	4a
=54	=54	=54	=54
2.E	4B]	4f#]	[2.g
.	4c#	4e	.
.	4B	4d	.
=55	=55	=55	=55
[2.F#	[2.A#	2.c#	4g]
.	.	.	4f#
.	.	.	4e
=56	=56	=56	=56
4F#]	4A#]	2d	2d
4G	4B	.	.
4D	[4B	[4f#	[4dd
=57	=57	=57	=57
2E	4B]	4f#]	4dd]
.	4c#	4e	4cc#
4F#	[4e	[4c#	[4a#
=58	=58	=58	=58
2G	4e]	4c#]	4a#]
.	4d	4B	4b
4D	[4B	[4f#	[4dd
=59	=59	=59	=59
2E	4B]	4f#]	4dd]
.	4c#	4e	4cc#
4F#	4e	4c#	4a#
=60	=60	=60	=60
4BB	4d	4d	4b
4B	2r	2r	2r
4BB	.	.	.
=61	=61	=61	=61
4r	[2.B	[2.dd	2.r
4B	.	.	.
4A	.	.	.
=62	=62	=62	=62
2.G#	4B]	4dd]	[2.ee
.	4c	4cc	.
.	4d	4b	.
=63	=63	=63	=63
2.A	4c	[2.cc	4ee]
.	4B	.	4dd
.	[4A	.	4cc
=64	=64	=64	=64
2.F#	4A]	4cc]	[2.dd
.	4B	4b	.
.	4c	4a	.
=65	=65	=65	=65
4G	4B	2.b	4dd]
4B	2r	.	[2gg
4c#	.	.	.
=66	=66	=66	=66
2d	2.r	2.a	4gg]
.	.	.	[2ff#
4d#	.	.	.
=67	=67	=67	=67
2e	2r	2g	4ff#]
.	.	.	[2ee
4c	[4g	4a#	.
=68	=68	=68	=68
[2.B	4g]	2b	4ee]
.	4f#	.	4dd#
.	4e	4a#	[4gg
=69	=69	=69	=69
2.B_	2d#	2b	4gg]
.	.	.	4ff#
.	4g	4a#	[4ee
=70	=70	=70	=70
2.B_	2f#	2b	4ee]
.	.	.	4dd#
.	4e	4a#	[4gg
=71	=71	=71	=71
2.B_	2d#	2b	4gg]
.	.	.	4ff#
.	4g	4a#	4ee
=72	=72	=72	=72
4B]	4f#	4b	4ee
2r	2r	2r	4dd#
.	.	.	4r
=73	=73	=73	=73
4r	[2.a	2.r	2.r
4f#	.	.	.
4e	.	.	.
=74	=74	=74	=74
4d#	2.a_	[2.cc	2.r
4f#	.	.	.
4e	.	.	.
=75	=75	=75	=75
4d#	2.a_	2.cc_	4ff#
4f#	.	.	4aa
4e	.	.	4gg
=76	=76	=76	=76
[2.d#	4a]	4cc]	[2.ff#
.	4f#	4a	.
.	4g	4b	.
=77	=77	=77	=77
4d#]	[2.a	[2.cc	4ff#]
4f#	.	.	4aa
4e	.	.	4gg
=78	=78	=78	=78
2.d#	2a]	4cc]	2ff#
.	.	[2b	.
.	[4f#	.	[4aa
=79	=79	=79	=79
2e	4f#]	2b]	4aa]
.	4e	.	4gg
[4c	[4g	[4a#	[4ee
=80	=80	=80	=80
4c]	4g]	4a#]	4ee]
2AA#	2c#	[2e	[2g
=81	=81	=81	=81
2.BB	2.B	4e]	4g]
.	.	4f#	4a
.	.	4d#	4f#
=82	=82	=82	=82
4EE	4E	4e	4e
2r	2r	2r	2r
==	==	==	==
*-	*-	*-	*-
!!!RWG1: This file contains only pitch and duration data.
!!!RWG2: Transposing instruments are not transposed.
!!!RWG3: Spines may have incompatible meters.
!!!RWG4: Durations of rests and tied notes may be interpreted.
!!!RWG: Key is interpreted using the Humdrum key tool.
!!!GTL: 6 Divertimentos
!!!AFT: stage1
!!!END: 1997/04/15
!!!KEY: 1195453773
!!!EMD: Converted from MuseData to Humdrum Dec 16, 2000, by Andreas Kornstaedt using muse2kern.
!!!EMD: Manual editing by Craig Sapp, Nov 2001
